X: 35844
T: Salvation, The
R: reel
M: 4/4
K: Amajor
EGAE GAEG|~A2cA BAFA|~B3c BAFA|dBcA BAFA|
EGAE GAEG|A2cA BAFA|~c3A BAFA|EFAB cAA2:|
|:BceB ceAe|~f3e cBB2|~f3e ~f3g|abaf ecBA|
cdec defg|abaf efc2|fecA B2AB|cBAE F4:|

